X: 152
T: Miss Jane Brown of Bentons Reel
C: Abraham Mackintosh
R: reel
M: C|
L: 1/8
Z: 2011 John Chambers <jc:trillian.mit.edu>
B: Abraham Mackintosh "A Collection of Strathspeys, Reels, Jigs &c.", Newcastle, after 1797, p.15
F: http://imslp.info/files/imglnks/usimg/a/a8/IMSLP80796-PMLP164326-Abraham_Mackintosh_coll.pdf
K: D
V: 1
f | dC FG/A/ d2AF | GEBE G/F/E BE | FD F/G/A d2fd | cdeg fdd :|
f | dcdA FAdA | GBed cAA B/c/ | dcdA FAFD | GEAG FD DB/c/ |
y2| dcdA FAdA | GBed cA AB/c/ | dfeg fagb | afeg fdd |]
V: 2 clef=bass middle=d
z | d2d2 f2d2 | e2e2  e2e2  | d2d2 f2d2 | a2A2 d2D :|
z | d2f2 d2f2 | g2^g2 a2=g2 | f2f2 d2d2 | a2A2 d2D2 |
y2| d2f2 d2f2 | g2^g2 a2=g2 | f2a2 d2g2 | a2A2 d2D |]

%%sep 2 1 500

